icons/fm-pause-circle.svg

<svg
  viewBox="0 0 16 16"
  xmlns="http://www.w3.org/2000/svg"
>
  <path
    d="M 8,3.814695e-6 C 3.5816,3.814695e-6 0,3.5816062 0,8.0000062 c 0,4.4183898 3.5816,7.9999898 8,7.9999898 4.4184,0 8,-3.5816 8,-7.9999898 C 16,3.5816062 12.4184,3.814695e-6 8,3.814695e-6 Z M 8,1.6000062 c 3.5344,0 6.4,2.8656 6.4,6.4 0,3.5343898 -2.8656,6.3999898 -6.4,6.3999898 -3.5344,0 -6.4,-2.8656 -6.4,-6.3999898 0,-3.5344 2.8656,-6.4 6.4,-6.4 z m -1.6,3.2 c -0.4416,0 -0.8,0.3584 -0.8,0.8 v 4.7999898 c 0,0.4416 0.3584,0.8 0.8,0.8 0.4416,0 0.8,-0.3584 0.8,-0.8 V 5.6000062 c 0,-0.4416 -0.3584,-0.8 -0.8,-0.8 z m 3.2,0 c -0.4416,0 -0.8,0.3584 -0.8,0.8 v 4.7999898 c 0,0.4416 0.3584,0.8 0.8,0.8 0.4416,0 0.8,-0.3584 0.8,-0.8 V 5.6000062 c 0,-0.4416 -0.3584,-0.8 -0.8,-0.8 z"
  />
</svg>

<svg
  viewBox="0 0 16 16"
  xmlns="http://www.w3.org/2000/svg"
>
  <path
    d="M8 7.62939e-06C3.5816 7.62939e-06 0 3.58161 0 8.00001C0 12.4184 3.5816 16 8 16C12.4184 16 16 12.4184 16 8.00001C16 3.58161 12.4184 7.62939e-06 8 7.62939e-06ZM8 1.60001C11.5344 1.60001 14.4 4.46561 14.4 8.00001C14.4 11.5344 11.5344 14.4 8 14.4C4.4656 14.4 1.6 11.5344 1.6 8.00001C1.6 4.46561 4.4656 1.60001 8 1.60001ZM6.4 4.80001C5.9584 4.80001 5.6 5.15841 5.6 5.60001V10.4C5.6 10.8416 5.9584 11.2 6.4 11.2C6.8416 11.2 7.2 10.8416 7.2 10.4V5.60001C7.2 5.15841 6.8416 4.80001 6.4 4.80001ZM9.6 4.80001C9.1584 4.80001 8.8 5.15841 8.8 5.60001V10.4C8.8 10.8416 9.1584 11.2 9.6 11.2C10.0416 11.2 10.4 10.8416 10.4 10.4V5.60001C10.4 5.15841 10.0416 4.80001 9.6 4.80001Z"
  />
</svg>
